X:0
T: Vals Fran Seglora
L:1/8
Q: "BPM=120"
M:3/4
K: E
|: B3/2B/ B2 B2 | G3/2A/ GF E2 | z3/2G/ A2 A2 | 
GA Bd e2 | B2 G2 E2 | F3E FG | AG F2 =D2 | E6 :|
|: e3/2e/ e2 ef | e3/2f/ ed B2 | =de dc Ac | 
B3A GB | ed B2 G2 | B2 G2 G2 | A2 F2 =D2 | E6 :|
